Numix-Light/16/status/indicator-keyboard-In-3.svg

<?xml version="1.0" encoding="UTF-8" standalone="no"?>
<svg
   xmlns:dc="http://purl.org/dc/elements/1.1/"
   xmlns:cc="http://creativecommons.org/ns#"
   xmlns:rdf="http://www.w3.org/1999/02/22-rdf-syntax-ns#"
   xmlns:svg="http://www.w3.org/2000/svg"
   xmlns="http://www.w3.org/2000/svg"
   xmlns:sodipodi="http://sodipodi.sourceforge.net/DTD/sodipodi-0.dtd"
   xmlns:inkscape="http://www.inkscape.org/namespaces/inkscape"
   viewBox="0 0 16 16"
   id="svg2"
   version="1.1"
   inkscape:version="0.91 r13725"
   sodipodi:docname="indicator-keyboard-In-3.svg">
  <metadata
     id="metadata14">
    <rdf:RDF>
      <cc:Work
         rdf:about="">
        <dc:format>image/svg+xml</dc:format>
        <dc:type
           rdf:resource="http://purl.org/dc/dcmitype/StillImage" />
      </cc:Work>
    </rdf:RDF>
  </metadata>
  <defs
     id="defs12" />
  <sodipodi:namedview
     pagecolor="#ffffff"
     bordercolor="#666666"
     borderopacity="1"
     objecttolerance="10"
     gridtolerance="10"
     guidetolerance="10"
     inkscape:pageopacity="0"
     inkscape:pageshadow="2"
     inkscape:window-width="640"
     inkscape:window-height="480"
     id="namedview10"
     showgrid="false"
     inkscape:zoom="14.75"
     inkscape:cx="8"
     inkscape:cy="8"
     inkscape:window-x="65"
     inkscape:window-y="24"
     inkscape:window-maximized="0"
     inkscape:current-layer="svg2" />
  <path
     style="fill:#353535;fill-opacity:1"
     d="M 1.5996094 0 C 0.71320937 2.9605947e-16 0 0.71320937 0 1.5996094 L 0 14.400391 C 2.9605947e-16 15.286791 0.71320937 16 1.5996094 16 L 14.400391 16 C 15.286791 16 16 15.286791 16 14.400391 L 16 1.5996094 C 16 0.71320937 15.286791 0 14.400391 0 L 1.5996094 0 z M 3.3222656 4.859375 L 3.9335938 4.859375 L 3.9335938 11.095703 L 3.3222656 11.095703 L 3.3222656 4.859375 z M 7.2988281 6.3535156 C 7.6528281 6.3535156 7.9476406 6.4038594 8.1816406 6.5058594 C 8.4216406 6.6078594 8.6100469 6.7552656 8.7480469 6.9472656 C 8.8920469 7.1332656 8.9946875 7.3570937 9.0546875 7.6210938 C 9.1146875 7.8850937 9.1445312 8.1761406 9.1445312 8.4941406 L 9.1445312 11.095703 L 8.5605469 11.095703 L 8.5605469 8.6835938 C 8.5605469 8.3535938 8.5362812 8.0756562 8.4882812 7.8476562 C 8.4462813 7.6196563 8.3716719 7.4330625 8.2636719 7.2890625 C 8.1616719 7.1450625 8.0236094 7.0424219 7.8496094 6.9824219 C 7.6816094 6.9164219 7.4669844 6.8847656 7.2089844 6.8847656 C 6.9329844 6.8847656 6.6942344 6.8996875 6.4902344 6.9296875 C 6.2922344 6.9596875 6.1635156 6.9857656 6.1035156 7.0097656 L 6.1035156 11.095703 L 5.5175781 11.095703 L 5.5175781 6.6054688 C 5.6915781 6.5574688 5.9267031 6.5033594 6.2207031 6.4433594 C 6.5147031 6.3833594 6.8728281 6.3535156 7.2988281 6.3535156 z M 11.310547 8.7539062 C 11.513347 8.7539062 11.685778 8.7793781 11.830078 8.8300781 C 11.978278 8.8807781 12.101719 8.953275 12.199219 9.046875 C 12.296719 9.136575 12.369216 9.2463 12.416016 9.375 C 12.462816 9.4997999 12.486328 9.6350031 12.486328 9.7832031 C 12.486328 10.021103 12.421669 10.217041 12.292969 10.369141 C 12.168169 10.517341 12.005541 10.625106 11.806641 10.691406 C 11.915841 10.718706 12.021647 10.759859 12.123047 10.818359 C 12.228347 10.872959 12.322397 10.945456 12.404297 11.035156 C 12.486197 11.120956 12.552816 11.226762 12.603516 11.351562 C 12.654216 11.476363 12.677734 11.623316 12.677734 11.791016 C 12.677734 11.962616 12.648338 12.119372 12.585938 12.263672 C 12.527438 12.407972 12.437306 12.535331 12.316406 12.644531 C 12.199406 12.749831 12.048534 12.834084 11.865234 12.896484 C 11.681934 12.954984 11.468356 12.984375 11.222656 12.984375 C 11.093956 12.984375 10.974434 12.974578 10.865234 12.955078 C 10.759934 12.939478 10.665884 12.919884 10.583984 12.896484 C 10.502084 12.873084 10.431547 12.849572 10.373047 12.826172 C 10.318447 12.802772 10.2773 12.783178 10.25 12.767578 L 10.349609 12.427734 C 10.373009 12.443334 10.412197 12.462928 10.466797 12.486328 C 10.521397 12.509728 10.586056 12.533241 10.660156 12.556641 C 10.738156 12.576141 10.824369 12.593775 10.917969 12.609375 C 11.015469 12.624975 11.121275 12.632813 11.234375 12.632812 C 11.604875 12.632812 11.869397 12.556397 12.029297 12.404297 C 12.189197 12.248297 12.269531 12.040597 12.269531 11.779297 C 12.269531 11.607697 12.236222 11.464662 12.169922 11.351562 C 12.107522 11.238462 12.01935 11.148331 11.90625 11.082031 C 11.79705 11.011831 11.667731 10.962847 11.519531 10.935547 C 11.375231 10.904347 11.222394 10.888672 11.058594 10.888672 L 11 10.888672 L 11 10.574219 L 11.134766 10.574219 C 11.240066 10.574219 11.345878 10.564422 11.455078 10.544922 C 11.568178 10.521522 11.670066 10.480375 11.759766 10.421875 C 11.853366 10.363375 11.929781 10.285 11.988281 10.1875 C 12.050681 10.09 12.082031 9.9646001 12.082031 9.8125 C 12.082031 9.6838 12.060478 9.5760281 12.017578 9.4863281 C 11.974678 9.3927281 11.915897 9.3182719 11.841797 9.2636719 C 11.771597 9.2090719 11.687344 9.1698844 11.589844 9.1464844 C 11.496244 9.1191844 11.398269 9.1054687 11.292969 9.1054688 C 11.082369 9.1054688 10.917781 9.1348594 10.800781 9.1933594 C 10.683781 9.2518594 10.587772 9.3067219 10.513672 9.3574219 L 10.349609 9.0585938 C 10.388609 9.0312937 10.437594 8.9999437 10.496094 8.9648438 C 10.558494 8.9297437 10.630991 8.8964344 10.712891 8.8652344 C 10.794791 8.8340344 10.884922 8.8085625 10.982422 8.7890625 C 11.083822 8.7656625 11.193547 8.7539062 11.310547 8.7539062 z "
     id="path4" />
</svg>

<svg xmlns="http://www.w3.org/2000/svg" viewBox="0 0 16 16">
 <path d="m 1.6 0 c -0.886 0 -1.6 0.713 -1.6 1.6 l 0 12.801 c 0 0.886 0.713 1.6 1.6 1.6 l 12.801 0 c 0.886 0 1.6 -0.713 1.6 -1.6 l 0 -12.801 c 0 -0.886 -0.713 -1.6 -1.6 -1.6 l -12.801 0 z m 1.723 4.859 l 0.611 0 l 0 6.236 l -0.611 0 l 0 -6.236 z m 3.977 1.494 c 0.354 0 0.649 0.05 0.883 0.152 c 0.24 0.102 0.428 0.249 0.566 0.441 c 0.144 0.186 0.247 0.41 0.307 0.674 c 0.06 0.264 0.09 0.555 0.09 0.873 l 0 2.602 l -0.584 0 l 0 -2.412 c 0 -0.33 -0.024 -0.608 -0.072 -0.836 c -0.042 -0.228 -0.117 -0.415 -0.225 -0.559 c -0.102 -0.144 -0.24 -0.247 -0.414 -0.307 c -0.168 -0.066 -0.383 -0.098 -0.641 -0.098 c -0.276 0 -0.515 0.015 -0.719 0.045 c -0.198 0.03 -0.327 0.056 -0.387 0.08 l 0 4.086 l -0.586 0 l 0 -4.49 c 0.174 -0.048 0.409 -0.102 0.703 -0.162 c 0.294 -0.06 0.652 -0.09 1.078 -0.09 z m 4.01 2.4 c 0.203 0 0.375 0.025 0.52 0.076 c 0.148 0.051 0.272 0.123 0.369 0.217 c 0.098 0.09 0.17 0.199 0.217 0.328 c 0.047 0.125 0.07 0.26 0.07 0.408 c 0 0.238 -0.065 0.434 -0.193 0.586 c -0.125 0.148 -0.287 0.256 -0.486 0.322 c 0.109 0.027 0.215 0.068 0.316 0.127 c 0.105 0.055 0.199 0.127 0.281 0.217 c 0.082 0.086 0.149 0.192 0.199 0.316 c 0.051 0.125 0.074 0.272 0.074 0.439 c 0 0.172 -0.029 0.328 -0.092 0.473 c -0.059 0.144 -0.149 0.272 -0.27 0.381 c -0.117 0.105 -0.268 0.19 -0.451 0.252 c -0.183 0.059 -0.397 0.088 -0.643 0.088 c -0.129 0 -0.248 -0.01 -0.357 -0.029 c -0.105 -0.016 -0.199 -0.035 -0.281 -0.059 c -0.082 -0.023 -0.152 -0.047 -0.211 -0.07 c -0.055 -0.023 -0.096 -0.043 -0.123 -0.059 l 0.1 -0.34 c 0.023 0.016 0.063 0.035 0.117 0.059 c 0.055 0.023 0.119 0.047 0.193 0.07 c 0.078 0.019 0.164 0.037 0.258 0.053 c 0.098 0.016 0.203 0.023 0.316 0.023 c 0.37 0 0.635 -0.076 0.795 -0.229 c 0.16 -0.156 0.24 -0.364 0.24 -0.625 c 0 -0.172 -0.033 -0.315 -0.1 -0.428 c -0.062 -0.113 -0.151 -0.203 -0.264 -0.27 c -0.109 -0.07 -0.239 -0.119 -0.387 -0.146 c -0.144 -0.031 -0.297 -0.047 -0.461 -0.047 l -0.059 0 l 0 -0.314 l 0.135 0 c 0.105 0 0.211 -0.01 0.32 -0.029 c 0.113 -0.023 0.215 -0.065 0.305 -0.123 c 0.094 -0.059 0.17 -0.137 0.229 -0.234 c 0.062 -0.098 0.094 -0.223 0.094 -0.375 c 0 -0.129 -0.022 -0.236 -0.064 -0.326 c -0.043 -0.094 -0.102 -0.168 -0.176 -0.223 c -0.07 -0.055 -0.154 -0.094 -0.252 -0.117 c -0.094 -0.027 -0.192 -0.041 -0.297 -0.041 c -0.211 0 -0.375 0.029 -0.492 0.088 c -0.117 0.059 -0.213 0.113 -0.287 0.164 l -0.164 -0.299 c 0.039 -0.027 0.088 -0.059 0.146 -0.094 c 0.062 -0.035 0.135 -0.068 0.217 -0.1 c 0.082 -0.031 0.172 -0.057 0.27 -0.076 c 0.101 -0.023 0.211 -0.035 0.328 -0.035 z" style="fill:#353535;fill-opacity:1"/>
</svg>
